packages/icons/src/components/Icon/assets/small-outline/book-open-outline.svg

<svg width="16" height="16" viewBox="0 0 16 16" fill="none" xmlns="http://www.w3.org/2000/svg">
<path fill-rule="evenodd" clip-rule="evenodd" d="M2.27273 2.9823V11.7491C2.75169 11.6456 3.24854 11.5911 3.75758 11.5911C5.0762 11.5911 6.31039 11.9562 7.36364 12.5904V4.06562C6.37884 3.26641 5.12472 2.78811 3.75758 2.78811C3.24335 2.78811 2.74573 2.85572 2.27273 2.9823ZM8.63636 4.06562V12.5904C9.68961 11.9562 10.9238 11.5911 12.2424 11.5911C12.7515 11.5911 13.2483 11.6456 13.7273 11.7491V2.9823C13.2543 2.85572 12.7566 2.78811 12.2424 2.78811C10.8753 2.78811 9.62116 3.26641 8.63636 4.06562ZM8 2.94704C6.82307 2.04915 5.35205 1.51538 3.75758 1.51538C2.94056 1.51538 2.15493 1.65562 1.4243 1.91386C1.17001 2.00374 1 2.24415 1 2.51385V12.5896C1 12.7962 1.10027 12.9899 1.26893 13.1092C1.4376 13.2285 1.65366 13.2584 1.84843 13.1896C2.44474 12.9788 3.08704 12.8639 3.75758 12.8639C5.22484 12.8639 6.56192 13.4148 7.5756 14.3221C7.81721 14.5383 8.18279 14.5383 8.4244 14.3221C9.43808 13.4148 10.7752 12.8639 12.2424 12.8639C12.913 12.8639 13.5553 12.9788 14.1516 13.1896C14.3463 13.2584 14.5624 13.2285 14.7311 13.1092C14.8997 12.9899 15 12.7962 15 12.5896V2.51385C15 2.24415 14.83 2.00374 14.5757 1.91386C13.8451 1.65562 13.0594 1.51538 12.2424 1.51538C10.6479 1.51538 9.17694 2.04915 8 2.94704Z" fill="black"/>
</svg>

<svg xmlns="http://www.w3.org/2000/svg" width="16" height="16" fill="none" viewBox="0 0 16 16">
    <path d="M2.273 2.982v8.767a7.02 7.02 0 0 1 5.09.841V4.066a5.7 5.7 0 0 0-3.605-1.278c-.515 0-1.012.068-1.485.194m6.363 1.084v8.524a7.03 7.03 0 0 1 5.09-.841V2.982a5.7 5.7 0 0 0-1.484-.194 5.7 5.7 0 0 0-3.606 1.278M8 2.947a6.97 6.97 0 0 0-4.242-1.432 7 7 0 0 0-2.334.399.64.64 0 0 0-.424.6V12.59a.636.636 0 0 0 .848.6 5.7 5.7 0 0 1 1.91-.326 5.7 5.7 0 0 1 3.818 1.458.636.636 0 0 0 .848 0 5.7 5.7 0 0 1 3.818-1.458c.671 0 1.313.115 1.91.326a.636.636 0 0 0 .848-.6V2.514c0-.27-.17-.51-.424-.6a7 7 0 0 0-2.334-.399A6.97 6.97 0 0 0 8 2.947" clip-rule="evenodd"/>
</svg>
